svgs/sharp-light/code-branch.svg

<svg xmlns="http://www.w3.org/2000/svg" viewBox="0 0 448 512"><!--! Font Awesome Pro 6.4.2 by @fontawesome - https://fontawesome.com License - https://fontawesome.com/license (Commercial License) Copyright 2023 Fonticons, Inc. --><path d="M128 32v96H32V32h96zM32 0H0V32v96 32H32 64V352H32 0v32 96 32H32h96 32V480 384 352H128 96c0-44.2 35.8-80 80-80h96c61.9 0 112-50.1 112-112h32 32V128 32 0H416 320 288V32v96 32h32 32c0 44.2-35.8 80-80 80H176c-31.3 0-59.7 12.9-80 33.6V160h32 32V128 32 0H128 32zM384 128H352 320V32h96v96H384zM128 384v96H32V384h96z"/></svg>

<svg xmlns="http://www.w3.org/2000/svg" viewBox="0 0 448 512"><!--! Font Awesome Pro 6.6.0 by @fontawesome - https://fontawesome.com License - https://fontawesome.com/license (Commercial License) Copyright 2024 Fonticons, Inc. --><path d="M128 32l0 96-96 0 0-96 96 0zM32 0L0 0 0 32l0 96 0 32 32 0 32 0 0 192-32 0L0 352l0 32 0 96 0 32 32 0 96 0 32 0 0-32 0-96 0-32-32 0-32 0c0-44.2 35.8-80 80-80l96 0c61.9 0 112-50.1 112-112l32 0 32 0 0-32 0-96 0-32L416 0 320 0 288 0l0 32 0 96 0 32 32 0 32 0c0 44.2-35.8 80-80 80l-96 0c-31.3 0-59.7 12.9-80 33.6L96 160l32 0 32 0 0-32 0-96 0-32L128 0 32 0zM384 128l-32 0-32 0 0-96 96 0 0 96-32 0zM128 384l0 96-96 0 0-96 96 0z"/></svg>
